X: 14030
T: Frankie Kennedy's
R: jig
M: 6/8
K: Dmajor
|A2d ded|Bee ede|fdB AFA|BAF DFG|A2d ded|Bee ede|fdB ABc|1 dfe dcB:|2 dfe d2a||
fdA dfa|fga b2a|geg fdf|ecA A2a|fdA dfa|fga b2a|~g3 ~f3|1 ecA d2a:|2 ecA dcB||

